svg/weather/snowflake_line.svg

<?xml version="1.0" encoding="UTF-8"?>
<svg width="24px" height="24px" viewBox="0 0 24 24" version="1.1" xmlns="http://www.w3.org/2000/svg" xmlns:xlink="http://www.w3.org/1999/xlink">
    <title>snowflake_line</title>
    <g id="Icon" stroke="none" stroke-width="1" fill="none" fill-rule="evenodd">
        <g id="Weather" transform="translate(-577.000000, -192.000000)" fill-rule="nonzero">
            <g id="snowflake_line" transform="translate(577.000000, 192.000000)">
                <path d="M24,0 L24,24 L0,24 L0,0 L24,0 Z M12.5935,23.2578 L12.5819,23.2595 L12.5109,23.295 L12.4919,23.2987 L12.4767,23.295 L12.4057,23.2595 C12.3958,23.2564 12.387,23.259 12.3821,23.2649 L12.378,23.2758 L12.3609,23.7031 L12.3659,23.7235 L12.3769,23.7357 L12.4805,23.8097 L12.4953,23.8136 L12.5071,23.8097 L12.6107,23.7357 L12.6233,23.7197 L12.6267,23.7031 L12.6096,23.2758 C12.6076,23.2657 12.601,23.2593 12.5935,23.2578 Z M12.8584,23.1453 L12.8445,23.1473 L12.6598,23.2397 L12.6499,23.2499 L12.6472,23.2611 L12.6651,23.6906 L12.6699,23.7034 L12.6784,23.7105 L12.8793,23.8032 C12.8914,23.8069 12.9022,23.803 12.9078,23.7952 L12.9118,23.7812 L12.8777,23.1665 C12.8753,23.1546 12.8674,23.147 12.8584,23.1453 Z M12.143,23.1473 C12.1332,23.1424 12.1222,23.1453 12.1156,23.1526 L12.1099,23.1665 L12.0758,23.7812 C12.0751,23.7927 12.0828,23.8019 12.0926,23.8046 L12.1083,23.8032 L12.3092,23.7105 L12.3186,23.7024 L12.3225,23.6906 L12.3404,23.2611 L12.3372,23.2485 L12.3278,23.2397 L12.143,23.1473 Z" id="MingCute"></path>
                <path d="M13,3 C13,2.44772 12.5523,2 12,2 C11.4477,2 11,2.44772 11,3 L11,6.58579 L8.70711,4.29289 C8.31658,3.90237 7.68342,3.90237 7.29289,4.29289 C6.90237,4.68342 6.90237,5.31658 7.29289,5.70711 L11,9.41421 L11,11 L9.41421,11 L5.70711,7.29289 C5.31658,6.90237 4.68342,6.90237 4.29289,7.29289 C3.90237,7.68342 3.90237,8.31658 4.29289,8.70711 L6.58579,11 L3,11 C2.44772,11 2,11.4477 2,12 C2,12.5523 2.44772,13 3,13 L6.58579,13 L4.29289,15.2929 C3.90237,15.6834 3.90237,16.3166 4.29289,16.7071 C4.68342,17.0976 5.31658,17.0976 5.70711,16.7071 L9.41421,13 L11,13 L11,14.5858 L7.29289,18.2929 C6.90237,18.6834 6.90237,19.3166 7.29289,19.7071 C7.68342,20.0976 8.31658,20.0976 8.70711,19.7071 L11,17.4142 L11,21 C11,21.5523 11.4477,22 12,22 C12.5523,22 13,21.5523 13,21 L13,17.4142 L15.2929,19.7071 C15.6834,20.0976 16.3166,20.0976 16.7071,19.7071 C17.0976,19.3166 17.0976,18.6834 16.7071,18.2929 L13,14.5858 L13,13 L14.5858,13 L18.2929,16.7071 C18.6834,17.0976 19.3166,17.0976 19.7071,16.7071 C20.0976,16.3166 20.0976,15.6834 19.7071,15.2929 L17.4142,13 L21,13 C21.5523,13 22,12.5523 22,12 C22,11.4477 21.5523,11 21,11 L17.4142,11 L19.7071,8.70711 C20.0976,8.31658 20.0976,7.68342 19.7071,7.29289 C19.3166,6.90237 18.6834,6.90237 18.2929,7.29289 L14.5858,11 L13,11 L13,9.41421 L16.7071,5.70711 C17.0976,5.31658 17.0976,4.68342 16.7071,4.29289 C16.3166,3.90237 15.6834,3.90237 15.2929,4.29289 L13,6.58579 L13,3 Z" id="路径" fill="#09244B"></path>
            </g>
        </g>
    </g>
</svg>

<svg xmlns="http://www.w3.org/2000/svg" width="24" height="24"><g fill="none" fill-rule="nonzero"><path d="M24 0v24H0V0h24ZM12.594 23.258l-.012.002-.071.035-.02.004-.014-.004-.071-.036c-.01-.003-.019 0-.024.006l-.004.01-.017.428.005.02.01.013.104.074.015.004.012-.004.104-.074.012-.016.004-.017-.017-.427c-.002-.01-.009-.017-.016-.018Zm.264-.113-.014.002-.184.093-.01.01-.003.011.018.43.005.012.008.008.201.092c.012.004.023 0 .029-.008l.004-.014-.034-.614c-.003-.012-.01-.02-.02-.022Zm-.715.002a.023.023 0 0 0-.027.006l-.006.014-.034.614c0 .012.007.02.017.024l.015-.002.201-.093.01-.008.003-.011.018-.43-.003-.012-.01-.01-.184-.092Z"/><path fill="#09244B" d="M13 3a1 1 0 1 0-2 0v3.586L8.707 4.293a1 1 0 0 0-1.414 1.414L11 9.414V11H9.414L5.707 7.293a1 1 0 0 0-1.414 1.414L6.586 11H3a1 1 0 1 0 0 2h3.586l-2.293 2.293a1 1 0 1 0 1.414 1.414L9.414 13H11v1.586l-3.707 3.707a1 1 0 1 0 1.414 1.414L11 17.414V21a1 1 0 1 0 2 0v-3.586l2.293 2.293a1 1 0 0 0 1.414-1.414L13 14.586V13h1.586l3.707 3.707a1 1 0 0 0 1.414-1.414L17.414 13H21a1 1 0 1 0 0-2h-3.586l2.293-2.293a1 1 0 0 0-1.414-1.414L14.586 11H13V9.414l3.707-3.707a1 1 0 0 0-1.414-1.414L13 6.586V3Z"/></g></svg>
